src/assets/icons/social/facefook_bw.svg

<?xml version="1.0" encoding="UTF-8"?>
<svg width="48px" height="48px" viewBox="0 0 48 48" version="1.1" xmlns="http://www.w3.org/2000/svg"
     xmlns:xlink="http://www.w3.org/1999/xlink">
  <g stroke="none" stroke-width="1" fill="#FFFFFE" fill-rule="evenodd">
    <path
      d="M48,24 C48,10.7451563 37.2548437,0 24,0 C10.7451563,0 0,10.7451563 0,24 C0,35.9790938 8.77645312,45.9079688 20.25,47.7084375 L20.25,30.9375 L14.15625,30.9375 L14.15625,24 L20.25,24 L20.25,18.7125 C20.25,12.6975 23.8330312,9.375 29.3151563,9.375 C31.9409531,9.375 34.6875,9.84375 34.6875,9.84375 L34.6875,15.75 L31.6611562,15.75 C28.6797656,15.75 27.75,17.6000156 27.75,19.4979844 L27.75,24 L34.40625,24 L33.3421875,30.9375 L27.75,30.9375 L27.75,47.7084375 C39.2235469,45.9079688 48,35.9790938 48,24"
    />
  </g>
</svg>

<svg width="48" height="48" xmlns="http://www.w3.org/2000/svg"><path d="M48 24C48 10.745 37.255 0 24 0S0 10.745 0 24c0 11.98 8.776 21.908 20.25 23.708v-16.77h-6.094V24h6.094v-5.288c0-6.014 3.583-9.337 9.065-9.337 2.626 0 5.372.469 5.372.469v5.906h-3.026c-2.981 0-3.911 1.85-3.911 3.748V24h6.656l-1.064 6.938H27.75v16.77C39.224 45.908 48 35.98 48 24" fill="#FFFFFE" fill-rule="evenodd"/></svg>
